public/illustrations/_bag.svg

<svg width="262" height="192" viewBox="0 0 262 192" fill="none" xmlns="http://www.w3.org/2000/svg">
<path d="M112.676 29.3964H132.356C134.197 25.8568 136.038 22.4587 137.878 19.2022C139.011 17.22 140.427 15.521 142.267 14.1052C144.108 12.6893 146.09 11.6982 148.214 11.1318C149.771 10.7071 151.471 10.4239 153.17 10.2823C157.842 9.85758 162.656 9.43284 167.328 10.5655C172.709 11.9814 177.381 14.2468 180.638 19.0607C181.062 19.0607 181.487 18.7774 181.912 18.6359C200.743 2.0703 233.025 6.31795 249.307 26.14C250.157 27.1311 251.006 28.1222 251.714 29.1133C255.395 33.9272 257.519 39.7322 257.519 45.6788C258.085 75.5535 259.077 105.57 259.926 135.444C260.209 142.948 260.351 150.594 260.634 158.098C260.917 164.753 261.342 171.407 261.483 178.062C261.483 182.734 259.501 184.716 254.687 184.999C238.688 185.566 222.547 186.132 206.548 186.699C187.575 187.406 168.603 188.114 149.489 188.964L91.2963 191.229C88.8893 191.229 86.4824 191.654 83.9339 191.654C82.9428 191.654 81.9515 191.512 81.2435 190.946C80.394 190.38 79.8277 189.53 79.5445 188.681C76.2881 178.77 72.8901 169 69.7752 159.089C68.2178 154.275 66.9433 149.32 65.3859 143.939C61.7046 142.524 57.5988 140.966 53.4928 139.55C39.6173 134.595 28.4317 125.816 18.9454 114.631C10.875 105.428 5.06994 94.526 1.95503 82.7744C-1.30146 69.7485 -0.451801 56.0146 4.22056 43.4134C10.0256 26.9894 20.2198 14.3883 35.6527 6.03476C42.732 2.35352 50.5194 0.371301 58.4483 0.0881287C78.8368 -1.04456 94.2696 8.86649 107.862 22.6003C109.702 24.5825 110.977 27.2726 112.393 29.538L112.676 29.3964ZM247.183 61.3948C233.591 86.5971 213.486 101.605 184.177 103.446C184.319 105.003 184.602 106.278 184.602 107.552C184.602 109.959 184.602 112.366 184.319 114.773C184.319 116.33 183.469 117.746 182.478 118.879C181.487 120.011 180.071 120.861 178.514 121.144C176.956 121.569 175.257 121.994 173.7 122.135C164.497 123.126 158.408 119.728 158.125 109.392C158.125 107.552 158.125 105.57 157.984 103.871C145.524 103.304 133.347 100.048 122.304 94.2428C111.401 88.4378 101.207 81.0753 92.4291 72.297C95.6856 108.118 98.5173 143.798 95.9687 179.619C100.924 179.619 248.316 174.664 251.147 173.389V170.416C250.864 165.602 250.157 160.788 250.015 155.833C249.449 137.851 248.882 119.87 248.457 101.888C248.174 89.1457 247.891 76.403 247.466 63.8018V61.1116L247.183 61.3948ZM90.3053 42.2807C89.8805 47.0947 90.4469 50.3511 91.7211 52.6165C101.491 69.6068 116.216 80.6506 133.914 88.2963C139.577 90.7032 145.665 92.2606 151.754 92.8269C164.638 94.1012 177.664 93.818 190.549 92.119C206.69 89.8536 219.149 82.0664 229.06 69.6068C234.582 62.5275 237.98 54.3156 241.661 46.3868C242.086 45.5372 242.227 44.5461 242.652 43.2719C238.829 43.1303 235.431 42.8471 232.033 42.7055C213.91 42.1391 195.787 41.5729 177.664 41.0065C152.886 40.157 128.109 39.5906 103.331 41.2896C98.942 41.5728 94.6943 42.1392 90.1635 42.5639L90.3053 42.2807ZM62.979 132.188C62.979 131.055 63.1207 130.63 63.1207 130.064C63.5455 120.295 63.6869 110.525 64.3949 100.897C65.386 87.7298 67.9346 74.7039 71.899 62.1028C72.3238 60.6869 72.4654 59.1295 73.0318 57.7136C75.014 51.6254 75.297 44.9708 78.5535 39.1658C80.6773 35.4846 83.0844 32.936 87.4735 32.0865C89.4558 31.6618 91.4379 31.5202 93.4201 31.3786C96.1103 31.237 98.8005 30.9539 101.349 30.3876C101.208 29.9628 101.066 29.538 100.783 29.1133C100.075 28.2637 99.2253 27.4142 98.5174 26.5647C92.9955 21.0429 86.3407 17.22 79.5445 13.6803C67.7929 7.73374 55.8996 8.30015 44.1479 12.6893C34.2368 16.5121 25.8832 23.5914 20.3613 32.6529C8.75119 51.2007 5.77787 70.8812 15.4058 91.128C22.2019 105.711 33.3873 117.746 47.2627 125.675C52.2183 128.365 57.457 130.63 62.8373 132.188H62.979ZM84.9249 171.832C87.7566 138.135 84.2171 104.72 80.819 71.3059C80.3943 71.7307 80.111 72.297 79.9694 73.0049C78.9783 78.102 78.2703 83.3407 77.1376 88.4378C75.297 98.0657 74.3059 107.693 74.3059 117.463C74.3059 124.684 73.5981 131.905 75.4387 138.984C77.4209 146.488 79.5445 153.709 81.6684 161.213L84.7832 171.832H84.9249ZM240.812 32.2282C238.83 30.3875 237.555 28.9716 235.998 27.8389C229.626 22.7418 221.981 19.627 213.91 18.919C203.575 18.0695 194.655 20.9012 187.292 28.1221C186.726 28.8301 186.018 29.6796 185.593 30.5291L240.953 32.2282H240.812ZM171.576 29.3964C171.576 28.5469 171.434 27.839 171.434 26.9895C171.434 25.7152 171.151 24.4409 170.302 23.4498C169.452 22.4587 168.461 21.7507 167.187 21.4676C166.337 21.1844 165.488 20.9012 164.638 20.7596H155.576C149.913 20.7596 146.515 23.5914 144.957 29.3964H171.718H171.576ZM168.744 111.516H174.124C173.983 108.826 173.841 106.561 173.7 103.871L168.744 104.154V111.516Z" fill="#102185"/>
<path d="M157.842 168.575C152.037 168.151 143.966 167.584 135.896 166.593C131.79 166.31 127.967 164.894 124.427 162.77C121.029 160.647 118.056 157.673 116.074 154.134C113.667 149.745 111.543 145.214 109.844 140.541C109.278 139.267 109.278 137.851 109.703 136.577C110.127 135.303 111.118 134.17 112.251 133.462C113.101 132.896 113.667 132.046 114.658 131.48C115.932 130.489 117.49 129.781 119.047 129.498C136.179 128.365 153.311 127.091 170.585 126.241C187.15 125.392 203.716 124.825 220.282 124.259C221.556 124.259 222.83 124.259 224.105 124.542C225.662 124.684 226.936 125.392 227.927 126.524C228.918 127.657 229.485 129.073 229.485 130.63C230.193 145.638 225.804 155.55 209.946 161.921C203.433 164.611 196.637 165.602 189.699 166.593C187.009 167.018 184.319 167.301 181.629 167.443C174.408 167.867 167.328 168.292 157.842 168.717V168.575ZM218.582 135.161C186.159 137.143 153.736 136.577 121.313 140.258C122.304 144.081 124.144 147.479 126.693 150.452C128.675 153.001 131.507 154.7 134.763 155.408C138.445 156.257 142.126 156.824 145.807 157.107C160.107 157.957 174.549 157.532 188.849 155.691C195.929 154.842 202.867 153.567 209.238 150.452C215.468 147.337 219.007 142.665 218.724 135.02L218.582 135.161Z" fill="#102185"/>
</svg>

<svg xmlns="http://www.w3.org/2000/svg" width="262" height="192" fill="none" viewBox="0 0 262 192"><path fill="#102185" d="M112.676 29.396h19.68a334 334 0 0 1 5.522-10.194c1.133-1.982 2.549-3.681 4.389-5.097q2.761-2.124 5.947-2.973c1.557-.425 3.257-.708 4.956-.85 4.672-.424 9.486-.85 14.158.284 5.381 1.415 10.053 3.68 13.31 8.495.424 0 .849-.284 1.274-.425 18.831-16.566 51.113-12.318 67.395 7.504.85.991 1.699 1.982 2.407 2.973 3.681 4.814 5.805 10.62 5.805 16.566.566 29.874 1.558 59.891 2.407 89.765.283 7.504.425 15.15.708 22.654.283 6.655.708 13.309.849 19.964 0 4.672-1.982 6.654-6.796 6.937-15.999.567-32.14 1.133-48.139 1.7-18.973.707-37.945 1.415-57.059 2.265l-58.193 2.265c-2.407 0-4.814.425-7.362.425-.991 0-1.983-.142-2.69-.708-.85-.566-1.416-1.416-1.7-2.265-3.256-9.911-6.654-19.681-9.769-29.592-1.557-4.814-2.832-9.769-4.39-15.15-3.68-1.415-7.786-2.973-11.892-4.389-13.876-4.955-25.061-13.734-34.548-24.919a79 79 0 0 1-16.99-31.857c-3.256-13.025-2.407-26.76 2.266-39.36 5.805-16.425 15.999-29.026 31.432-37.38C42.732 2.355 50.519.372 58.448.089 78.837-1.045 94.27 8.866 107.862 22.6c1.84 1.982 3.115 4.673 4.531 6.938zm134.507 31.999c-13.592 25.202-33.697 40.21-63.006 42.051.142 1.557.425 2.832.425 4.106 0 2.407 0 4.814-.283 7.221 0 1.557-.85 2.973-1.841 4.106-.991 1.132-2.407 1.982-3.964 2.265-1.558.425-3.257.85-4.814.991-9.203.991-15.292-2.407-15.575-12.743 0-1.84 0-3.822-.141-5.521-12.46-.567-24.637-3.823-35.68-9.628-10.903-5.805-21.097-13.168-29.875-21.946 3.257 35.821 6.088 71.501 3.54 107.322 4.955 0 152.347-4.955 155.178-6.23v-2.973c-.283-4.814-.99-9.628-1.132-14.583-.566-17.982-1.133-35.963-1.558-53.945-.283-12.742-.566-25.485-.991-38.086v-2.69zM90.305 42.28c-.425 4.814.142 8.07 1.416 10.336 9.77 16.99 24.495 28.034 42.193 35.68 5.663 2.406 11.751 3.964 17.84 4.53 12.884 1.274 25.91.991 38.795-.708 16.141-2.265 28.6-10.053 38.511-22.512 5.522-7.08 8.92-15.291 12.601-23.22.425-.85.566-1.84.991-3.115-3.823-.142-7.221-.425-10.619-.566l-54.369-1.7c-24.778-.849-49.555-1.415-74.333.284-4.389.283-8.637.85-13.168 1.274zM62.98 132.188c0-1.133.142-1.558.142-2.124.424-9.769.566-19.539 1.274-29.167.991-13.167 3.54-26.193 7.504-38.794.425-1.416.566-2.974 1.133-4.39 1.982-6.088 2.265-12.742 5.522-18.547 2.123-3.681 4.53-6.23 8.92-7.08 1.982-.424 3.964-.566 5.946-.707 2.69-.142 5.38-.425 7.929-.991-.141-.425-.283-.85-.566-1.275-.708-.85-1.558-1.699-2.266-2.548-5.521-5.522-12.176-9.345-18.972-12.885C67.793 7.734 55.9 8.3 44.148 12.69 34.237 16.511 25.883 23.59 20.36 32.652 8.751 51.2 5.778 70.88 15.406 91.128c6.796 14.583 17.981 26.618 31.857 34.547 4.955 2.69 10.194 4.955 15.574 6.513zm21.946 39.644c2.832-33.697-.708-67.112-4.106-100.526q-.637.637-.85 1.699c-.99 5.097-1.699 10.336-2.831 15.433-1.841 9.628-2.832 19.255-2.832 29.025 0 7.221-.708 14.442 1.133 21.521 1.982 7.504 4.106 14.725 6.23 22.229l3.114 10.619zM240.812 32.228c-1.982-1.84-3.257-3.256-4.814-4.39-6.372-5.096-14.017-8.211-22.088-8.919-10.335-.85-19.255 1.982-26.618 9.203-.566.708-1.274 1.558-1.699 2.407l55.36 1.7zm-69.236-2.832c0-.85-.142-1.557-.142-2.407 0-1.274-.283-2.548-1.132-3.54-.85-.99-1.841-1.698-3.115-1.981-.85-.284-1.699-.567-2.549-.708h-9.062c-5.663 0-9.061 2.831-10.619 8.636h26.761zm-2.832 82.12h5.38c-.141-2.69-.283-4.955-.424-7.645l-4.956.283z"/><path fill="#102185" d="M157.842 168.575c-5.805-.424-13.876-.991-21.946-1.982-4.106-.283-7.929-1.699-11.469-3.823-3.398-2.123-6.371-5.097-8.353-8.636-2.407-4.389-4.531-8.92-6.23-13.593-.566-1.274-.566-2.69-.141-3.964s1.415-2.407 2.548-3.115c.85-.566 1.416-1.416 2.407-1.982 1.274-.991 2.832-1.699 4.389-1.982 17.132-1.133 34.264-2.407 51.538-3.257 16.565-.849 33.131-1.416 49.697-1.982 1.274 0 2.548 0 3.823.283 1.557.142 2.831.85 3.822 1.982s1.558 2.549 1.558 4.106c.708 15.008-3.681 24.92-19.539 31.291-6.513 2.69-13.309 3.681-20.247 4.672a78 78 0 0 1-8.07.85c-7.221.424-14.301.849-23.787 1.274zm60.74-33.414c-32.423 1.982-64.846 1.416-97.269 5.097.991 3.823 2.831 7.221 5.38 10.194 1.982 2.549 4.814 4.248 8.07 4.956a74.5 74.5 0 0 0 11.044 1.699c14.3.85 28.742.425 43.042-1.416 7.08-.849 14.018-2.124 20.389-5.239 6.23-3.115 9.769-7.787 9.486-15.432z"/></svg>
